!!!!SEGMENT: pl-kk--kk-i-40--009-001_lasso-orlando-di--missa-sexti-toni-kyrie.krn
!!!cenid: 16xx:1310
!!!COM: Lasso, Orlando di
!!!COM-rismid: pe506
!!!CDT: ~1532-1594/06/14
!!!CNT: French-Flemish
!!!OPR: Missa Sexti Toni
!!!OTL: Kyrie
!!!OMV: 001
!!!PDT:
!!!AGN: Sacred; Mass
!!!SMS-siglum: PL-Kk
!!!SMS-shelfmark: Kk.I.40
!!!SMS-shelfwork: 009-001 M
!!!SMS-variant:
!!!SMS-altvar:
!!!NIFC-rismid: 1001154531
!!!URL-scan: http://repozytorium.nifc.pl/skany/pl-kk-nut--i-40
!!!ONB-nifc: UWAGA: części Mszy: 1. Kyrie, 2. Et in terra, 3. Sanctus, 4. Agnus Dei. Skan 0012-0013
!!!key:
**kern	**text
*Iempty	*
*I"Baſso Ripieno.	*
*I'B rip	*
*clefF4	*
*k[b-]	*
*f:	*
*M2/1	*
*met(C|)	*
=1-	=1-
!LO:TX:t=P:problem=przy kluczu BB- B-	!
0r	.
=2-	=2-
!LO:TX:t=P:problem=kreska pseudotaktowa	!
1r	.
*2\right	*
2F\	Ky-
4F\	-ri-
!LO:TX:t=P:problem=kreska pseudotaktowa	!
4E\	.
=3-	=3-
2D/	-e
!LO:TX:t=P:problem=kreska pseudotaktowa	!
2C/	e-
2D\	-lei-
2E\	.
=4-	=4-
!LO:TX:t=P:problem=kreska pseudotaktowa	!
1F,<	-son
0r	.
=5-	=5-
.	.
!LO:TX:t=P:problem=kreska pseudotaktowa	!
1r	.
=6-	=6-
*	*ij
2F\	Ky-
4F\	-ri-
!LO:TX:t=P:problem=kreska pseudotaktowa	!
4E\	.
2D/	-e
2C/	e-
=7-	=7-
2BB-/	-lei-
!LO:TX:t=P:problem=kreska pseudotaktowa	!
2AA/	.
1GG	.
=8-	=8-
2FF,</	-son
*	*Xij
!LO:SIC:v:t=custos F	!
!LO:TX:t=P:problem=kreska pseudotaktowa	!
[<2F\	Ky-
!LO:LB:g=original	!
!LO:N:xstem:cue	!
4F\]	.
4F\	-ri-
2F\	-e
=9-	=9-
2G\	e-
!LO:TX:t=P:problem=kreska pseudotaktowa	!
[2D\	-lei-
!LO:N:xstem:cue	!
4D\]	.
4E\	.
2.F\	.
=10-	=10-
.	.
4E\	.
!LO:TX:t=P:problem=kreska pseudotaktowa	!
2F\	.
1C	.
=11-	=11-
0FFl;	-son
=12||	=12||
*M2/1	*
*met(C|)	*
1r	.
2r	.
1F\	Chri-
=13-	=13-
.	.
!LO:TX:t=P:problem=kreska pseudotaktowa	!
2F\	-ste
2E\	e-
2F\	-lei-
=14-	=14-
1D	.
2C,</	-son
4r	.
*	*ij
!LO:TX:t=P:problem=kreska pseudotaktowa	!
4F\	Chri-
=15-	=15-
2G\	-ste
2GG/	e-
!LO:TX:t=P:problem=kreska pseudotaktowa	!
1C	-lei-
=16-	=16-
2FF,</	-son
*	*Xij
1F	X-
!LO:TX:t=P:problem=kreska pseudotaktowa	!
2F\	-te
=17-	=17-
2E\	e-
2F\	.
!LO:TX:t=P:problem=kreska pseudotaktowa	!
1D	.
=18-	=18-
2C/	-lei-
!LO:TX:t=P:problem=kreska pseudotaktowa	!
2BBn/	.
1C	.
=19-	=19-
1GG	.
2C/	-son,
4r	.
!LO:TX:t=P:problem=kreska pseudotaktowa	!
4F\	X-
=20-	=20-
2G\	-te
!LO:TX:t=P:problem=kreska pseudotaktowa	!
2C/	e-
!LO:LB:g=original	!
2F\	-lei-
4D,</	-son
!LO:TX:t=P:problem=kreska pseudotaktowa	!
4D/	e-
=21-	=21-
2G\	-lei-
!LO:TX:t=P:problem=kreska pseudotaktowa	!
2C/	.
2F\	.
!LO:TX:t=P:problem=kreska pseudotaktowa	!
2BB-y,</	-son
=22-	=22-
4r	.
4F\	X-
!LO:TX:t=P:problem=kreska pseudotaktowa	!
2G\	-te
1C	e-
=23-	=23-
0F	-lei-
=24-	=24-
0Cl;	-son
=25||	=25||
*M2/1	*
*met(C|)	*
2.F\	Ky-
4F\	-ri-
*lig	*
1BB-	-e
=26-	=26-
1D	e-
*Xlig	*
1C	-lei-
=27-	=27-
!LO:TX:t=P:problem=kreska pseudotaktowa	!
1BB-,<	-son
*	*ij
2C/	Ky-
(4C/	-ri-
4D/)	.
=28-	=28-
2C/	-e
!LO:TX:t=P:problem=kreska pseudotaktowa	!
2F\	e-
2BB-/	.
2D/	.
=29-	=29-
!LO:TX:t=P:problem=kreska pseudotaktowa	!
1C	-lei-
2FF,</	-son
*	*Xij
2.F\	Ky-
=30-	=30-
.	.
4F\	ri-
!LO:TX:t=P:problem=kreska pseudotaktowa	!
2F\	-e
4.BB-/	e-
8C/	.
!LO:TX:t=P:problem=kreska pseudotaktowa	!
2D/	.
=31-	=31-
2C/	le-
2FF/	-i-
1BB-,<	-son
=32-	=32-
2C/	Ky-
4C/	-ri-
!LO:TX:t=P:problem=kreska pseudotaktowa	!
4D/	.
2C/	-e
2F\	e-
=33-	=33-
2BB-/	.
2D/	.
1C	.
=34-	=34-
1D	.
1BB-	-lei-
=35-	=35-
0Fl;	-son
==	==
*-	*-
!!!RDF**kern: < = below
!!!RDF**kern: l = terminal long
!!!AIN: 1 empty
!!!ENC: Andrzej Kubiczek
!!!END: 2021-08-01
!!!ENC: Krzysztof Stępień
!!!END: 2021-07-05
